X:1
T:Boston Boy
M:4/4
L:1/8
R:Reel
N:From a transcription by John Lamancusa, by permission. See http://www.mne.psu.edu/lamancusa/tunes.htm
Z:AK/Fiddler's Companion
K:D
A,B, |: D2 DE F2A2 | GFGA GF E2 | A2 cA BA c2 | d3e dBAF |
D2 FD E2F2 | G2 GA GF E2 | A2 cA BABc |1 dcde d4 :|2 dcde d2 de ||
|: f3g fede | fa2b afdf | efed cABc | e2(d2d2) de |
f3g fede | ba2b afdf | efed cABc |1 dcde d2 de :|2 dcde dBAF ||

